src/pos-icons/star-off.svg

<svg height="24" viewBox="0 0 24 24" width="24" xmlns="http://www.w3.org/2000/svg"><path d="m2 5.27 1.28-1.27 16.72 16.72-1.27 1.28-1.68-1.69-5.05-3.04-6.18 3.73 1.63-7.03-5.45-4.73 3.66-.31zm10-3.27 2.81 6.62 7.19.62-5.46 4.73.23.98-7.21-7.21z"/></svg>

<?xml version="1.0" encoding="UTF-8"?><!DOCTYPE svg PUBLIC "-//W3C//DTD SVG 1.1//EN" "http://www.w3.org/Graphics/SVG/1.1/DTD/svg11.dtd"><svg xmlns="http://www.w3.org/2000/svg" xmlns:xlink="http://www.w3.org/1999/xlink" version="1.1" id="mdi-star-off" width="24" height="24" viewBox="0 0 24 24"><path d="M2,5.27L3.28,4L20,20.72L18.73,22L17.05,20.31L12,17.27L5.82,21L7.45,13.97L2,9.24L5.66,8.93L2,5.27M12,2L14.81,8.62L22,9.24L16.54,13.97L16.77,14.95L9.56,7.74L12,2Z" /></svg>
